X: 1146
T: İnanmaz Vad`i...
C: Lâtif Ağa
O: Turkey
F: http://compmusic.upf.edu/node/140
N: buselik--sarki--aksak--inanmaz_vad_i--latif_aga
N: makam= buselik
N: form= sarki
N: usul= aksak = 9/8
M: 9/8
L: 1/16
K: C    
Q: 1/4=120
%%MIDI tuningsystem comma53
G2c6 d4 e4 d2 | dc e2dc cBd2 cBBA A^GA6 g2fe d2e2 f2g2 a2 | 
w:   |   | 
g2 f2f3eed c2d2 f2ed  | d4 z2c2 d_7/8ede dcde ^fg | 
w:   |   | 
ag ^f_7/8edc d2cB gfed dccB  | c6cB d2cB A2B2 c2 | 
w:   |   | 
d2 e2d2 c2c3BBA ABA3/2^G/  | F^GA4B2 c2d_7/8e dedc de | 
w:   |   | 
^fg agf_7/8e dcd2 cBgf eddc  | cBc6 cBd2 cBA2 B2 | 
w:   |   | 
c2 d2e2 d2c2 c3B BAAB  | cBA^G A4 z2g2 a4 g2 | \
w:   |   | 
a2 c'2ba a4 e2e3ced2cc2 BAA6 g2fe d2 | 
w:   | 
e2 f2g2 a2g2 f2f3eed  | c2d2 f2ed d4 z2c2 d_7/8e | \
w:   |   | 
d_7/8e dcde ^fgag fedc d2cB  | 
w:   | 
g^f_7/8ed dccB c6cB d2 | cB A2B2 c2d2 e2d2 c2c3BBA ABA3/2^G/ FGA4B2 c2 | 
w:   |   | 
d_7/8e dedc de^fg agfe dcd2  | cBg^f _7/8eddc cBc6 cB | 
w:   |   | 
d2 cBA2 B2c2 d2e2 d2c2  | c3B BAAB cBA^G A4 z2 | 
w:   |   | 
G4c4e4g4a2  | g2f2 e2d2 c2d2 edcB AB | \
w:   |   | 
G4c4e4g4a2  | 
w:   | 
g2f2 e2d2 edcB c4 z2 | G4c4e4g4a2  | \
w:   |   | 
g2f2 e2d2 c2d2 edcB AB | 
w:   | 
G4c4e4g4a2  | g2f2 e2d2 edcB A4 z2 | |


